Simply-White-Circles/scalable/apps/preferences-desktop-keyboard.svg

<svg xmlns="http://www.w3.org/2000/svg" width="48" height="48" viewBox="0 0 12.7 12.7"><path fill="#e6e6e6" d="M6.34.07a6.29 6.29 0 0 0-6.29 6.3 6.29 6.29 0 0 0 6.3 6.28 6.29 6.29 0 0 0 6.28-6.29A6.29 6.29 0 0 0 6.34.07zm-.01.94a5.4 5.4 0 0 1 5.4 5.4 5.4 5.4 0 0 1-5.4 5.41 5.4 5.4 0 0 1-5.41-5.4A5.4 5.4 0 0 1 6.32 1zM3.89 2.5a.98.98 0 0 0-.98.98v4.91a.98.98 0 0 0 .98.98h4.92a.98.98 0 0 0 .98-.98V3.48a.98.98 0 0 0-.98-.99H3.89zm0 .49h4.92a.49.49 0 0 1 .49.49V7.9a.49.49 0 0 1-.5.5H3.9a.49.49 0 0 1-.5-.5V3.48c0-.27.22-.5.5-.5zm3.27 1.96c-.38 0-.76.12-1.12.37l.19.42c.15-.1.3-.18.44-.23.15-.06.28-.08.43-.08.22 0 .4.05.5.17.13.11.22.27.22.47v.15a2.25 2.25 0 0 0-.38-.09 1.97 1.97 0 0 0-.38-.03c-.18 0-.33.02-.48.06a1.27 1.27 0 0 0-.38.19.82.82 0 0 0-.23.27.89.89 0 0 0-.02.76c.05.1.1.2.18.27.1.08.2.14.31.19a1.33 1.33 0 0 0 .97-.06c.18-.1.34-.22.46-.39l.01.17a.36.36 0 0 0 .11.22c.06.05.15.08.26.09h.14c.05 0 .1 0 .16-.02v-.5c-.07 0-.15-.02-.18-.05a.24.24 0 0 1-.06-.15V6.1c0-.37-.04-.65-.26-.84-.2-.2-.5-.31-.89-.31zm-.04 1.5c.1 0 .3.03.41.05l.3.1v.36c0 .07-.07.15-.14.22-.21.19-.47.21-.71.23-.16 0-.36 0-.46-.08a.46.46 0 0 1-.17-.35c0-.15.15-.28.28-.37a.82.82 0 0 1 .49-.15z"/></svg>

<?xml version="1.0" encoding="UTF-8" standalone="no"?>
<svg
   xmlns:dc="http://purl.org/dc/elements/1.1/"
   xmlns:cc="http://creativecommons.org/ns#"
   xmlns:rdf="http://www.w3.org/1999/02/22-rdf-syntax-ns#"
   xmlns:svg="http://www.w3.org/2000/svg"
   xmlns="http://www.w3.org/2000/svg"
   xmlns:sodipodi="http://sodipodi.sourceforge.net/DTD/sodipodi-0.dtd"
   xmlns:inkscape="http://www.inkscape.org/namespaces/inkscape"
   width="48"
   height="48"
   viewBox="0 0 12.7 12.7"
   version="1.1"
   id="svg4"
   sodipodi:docname="preferences-desktop-keyboard.svg"
   inkscape:version="0.92.4 (5da689c313, 2019-01-14)">
  <metadata
     id="metadata10">
    <rdf:RDF>
      <cc:Work
         rdf:about="">
        <dc:format>image/svg+xml</dc:format>
        <dc:type
           rdf:resource="http://purl.org/dc/dcmitype/StillImage" />
        <dc:title></dc:title>
      </cc:Work>
    </rdf:RDF>
  </metadata>
  <defs
     id="defs8" />
  <sodipodi:namedview
     pagecolor="#ffffff"
     bordercolor="#666666"
     borderopacity="1"
     objecttolerance="10"
     gridtolerance="10"
     guidetolerance="10"
     inkscape:pageopacity="0"
     inkscape:pageshadow="2"
     inkscape:window-width="1087"
     inkscape:window-height="480"
     id="namedview6"
     showgrid="false"
     inkscape:zoom="4.9166667"
     inkscape:cx="2.1355932"
     inkscape:cy="24"
     inkscape:window-x="0"
     inkscape:window-y="25"
     inkscape:window-maximized="0"
     inkscape:current-layer="svg4" />
  <path
     d="M 6.34,0.07 A 6.29,6.29 0 0 0 0.05,6.37 6.29,6.29 0 0 0 6.35,12.65 6.29,6.29 0 0 0 12.63,6.36 6.29,6.29 0 0 0 6.34,0.07 Z M 6.33,1.01 a 5.4,5.4 0 0 1 5.4,5.4 5.4,5.4 0 0 1 -5.4,5.41 A 5.4,5.4 0 0 1 0.92,6.42 5.4,5.4 0 0 1 6.32,1 Z M 3.89,2.5 A 0.98,0.98 0 0 0 2.91,3.48 V 8.39 A 0.98,0.98 0 0 0 3.89,9.37 H 8.81 A 0.98,0.98 0 0 0 9.79,8.39 V 3.48 A 0.98,0.98 0 0 0 8.81,2.49 H 3.89 Z m 0,0.49 H 8.81 A 0.49,0.49 0 0 1 9.3,3.48 V 7.9 A 0.49,0.49 0 0 1 8.8,8.4 H 3.9 A 0.49,0.49 0 0 1 3.4,7.9 V 3.48 c 0,-0.27 0.22,-0.5 0.5,-0.5 z M 7.16,4.95 C 6.78,4.95 6.4,5.07 6.04,5.32 L 6.23,5.74 C 6.38,5.64 6.53,5.56 6.67,5.51 6.82,5.45 6.95,5.43 7.1,5.43 7.32,5.43 7.5,5.48 7.6,5.6 7.73,5.71 7.82,5.87 7.82,6.07 V 6.22 A 2.25,2.25 0 0 0 7.44,6.13 1.97,1.97 0 0 0 7.06,6.1 C 6.88,6.1 6.73,6.12 6.58,6.16 A 1.27,1.27 0 0 0 6.2,6.35 0.82,0.82 0 0 0 5.97,6.62 0.89,0.89 0 0 0 5.95,7.38 c 0.05,0.1 0.1,0.2 0.18,0.27 0.1,0.08 0.2,0.14 0.31,0.19 A 1.33,1.33 0 0 0 7.41,7.78 C 7.59,7.68 7.75,7.56 7.87,7.39 l 0.01,0.17 a 0.36,0.36 0 0 0 0.11,0.22 c 0.06,0.05 0.15,0.08 0.26,0.09 h 0.14 c 0.05,0 0.1,0 0.16,-0.02 V 7.35 C 8.48,7.35 8.4,7.33 8.37,7.3 A 0.24,0.24 0 0 1 8.31,7.15 V 6.1 C 8.31,5.73 8.27,5.45 8.05,5.26 7.85,5.06 7.55,4.95 7.16,4.95 Z m -0.04,1.5 c 0.1,0 0.3,0.03 0.41,0.05 l 0.3,0.1 V 6.96 C 7.83,7.03 7.76,7.11 7.69,7.18 7.48,7.37 7.22,7.39 6.98,7.41 6.82,7.41 6.62,7.41 6.52,7.33 A 0.46,0.46 0 0 1 6.35,6.98 C 6.35,6.83 6.5,6.7 6.63,6.61 A 0.82,0.82 0 0 1 7.12,6.46 Z"
     id="path2"
     inkscape:connector-curvature="0"
     style="fill:#e6e6e6" />
</svg>
